!!!!SEGMENT: pl-cz--iii-332--003_just-franciszek-kasper--dixit-dominus-dominare-in-medio.krn
!!!cenid: 17xx:908
!!!COM: Just, Franciszek Kasper
!!!COM-rismid: pe30098311
!!!CDT: 1717-1760
!!!CNT: Czech
!!!OPR: Dixit Dominus
!!!OTL: Dominare in medio
!!!OMV: 003
!!!PDT:
!!!AGN: Sacred
!!!SMS-siglum: PL-CZ
!!!SMS-shelfmark: III-332
!!!SMS-shelfwork: 001-003 M
!!!SMS-variant:
!!!SMS-altvar:
!!!NIFC-rismid: 300000542
!!!URL-scan: http://repozytorium.nifc.pl/skany/pl-cz-nut--iii-332
!!!ONB-nifc: UWAGA: części Dixit Dominus: Dixit Dominus, Virgam virtutis tuae, Dominare in medio, Tecum principium, Juravit Dominus, Tu es sacerdos, Dominus a dextris, Judicabit in nationibus, De torrente, Gloria patri
!!!AIN: 1 alto 2 bass 2 clrno 1 oboe 1 soprn 1 tenor 2 violn
!!!key: D
**kern	**dynam	**fb	**kern	**dynam	**kern	**dynam	**kern	**kern	**text	**dynam	**kern	**text	**dynam	**kern	**text	**dynam	**kern	**text	**dynam	**kern	**dynam	**kern	**dynam	**kern
*part11	*part11	*	*part10	*part10	*part9	*part9	*part8	*part7	*part7	*part7	*part6	*part6	*part6	*part5	*part5	*part5	*part4	*part4	*part4	*part3	*part3	*part2	*part2	*part1
*staff11	*	*	*staff10	*	*staff9	*	*staff8	*staff7	*staff7	*	*staff6	*staff6	*	*staff5	*staff5	*	*staff4	*staff4	*	*staff3	*	*staff2	*	*staff1
*group	*group	*	*group3	*group3	*group3	*group3	*group2	*group2	*group2	*group2	*group2	*group2	*group2	*group2	*group2	*group2	*group2	*group2	*group2	*group1	*group1	*group1	*group1	*group
*I"Fundamento.	*	*	*I"Violino Secundo.	*	*I"Violino Primo.	*	*I"Basso Secundo.	*I"Baſso.	*	*	*I"Tenore	*	*	*I"Alto.	*	*	*I"Canto.	*	*	*I"Clarino 2do.	*	*I"Clarino Primo ex D.	*	*I"Oboa Solo
*I'fund	*	*	*I'vl 2	*	*I'vl 1	*	*I'B 2	*I'B 1	*	*	*I'T	*	*	*I'A	*	*	*I'S	*	*	*I'clno 2	*	*I'clno 1	*	*I'ob
*I	*	*	*Ivioln	*	*Ivioln	*	*Ibass	*Ibass	*	*	*Itenor	*	*	*Ialto	*	*	*Isoprn	*	*	*Iclrno	*	*Iclrno	*	*Ioboe
*IC	*	*	*ICstr	*	*ICstr	*	*ICvox	*ICvox	*	*	*ICvox	*	*	*ICvox	*	*	*ICvox	*	*	*ICbras	*	*ICbras	*	*ICww
*clefF4	*	*	*clefG2	*	*clefG2	*	*clefF4	*clefF4	*	*	*clefC4	*	*	*clefC3	*	*	*clefC1	*	*	*clefG2	*	*clefG2	*	*clefG2
*	*	*	*	*	*	*	*	*	*	*	*	*	*	*	*	*	*	*	*	*ITrd-1c-2	*	*ITrd-1c-2	*	*
*k[f#c#]	*	*	*k[f#c#]	*	*k[f#c#]	*	*k[f#c#]	*k[f#c#]	*	*	*k[f#c#]	*	*	*k[f#c#]	*	*	*k[f#c#]	*	*	*k[f#c#]	*	*k[f#c#]	*	*k[f#c#]
*D:	*	*	*D:	*	*D:	*	*D:	*D:	*	*	*D:	*	*	*D:	*	*	*D:	*	*	*	*	*	*	*D:
*M3/4	*	*	*M3/4	*	*M3/4	*	*M3/4	*M3/4	*	*	*M3/4	*	*	*M3/4	*	*	*M3/4	*	*	*M3/4	*	*M3/4	*	*M3/4
=1	=1	=1	=1	=1	=1	=1	=1	=1	=1	=1	=1	=1	=1	=1	=1	=1	=1	=1	=1	=1	=1	=1	=1	=1
*	*	*above	*	*	*	*	*	*	*	*	*	*	*	*	*	*	*	*	*	*	*	*	*	*
!	!	!	!	!	!LO:TX:b:i:t=Dominare	!	!	!	!	!	!	!	!	!	!	!	!	!	!LO:DY:t=f.:rj	!LO:TX:b:i:t=Dominare	!	!LO:TX:b:i:t=Dominare	!	!
!	!	!	!LO:TX:b:i:t=Dominare	!LO:DY:a:t=f.:rj	!	!LO:DY:a:t=f.:rj	!	!	!	!LO:DY:a:t=f.	!LO:TX:t=P:problem=kolejność i wysokość znaków przykluczowych c# F#	!	!LO:DY:a:t=f.	!	!	!LO:DY:a:t=f.:rj	!LO:TX:t=P:problem=kolejność i wysokość znaków przykluczowych cc# f#	!	!LO:DY:a	!	!LO:DY:a:t=f.	!	!LO:DY:a:t=f.	!
2.ryy	.	.	4ff# 4a 4d/	f	4ff# 4a 4d/	f	2.ryy	4r	.	f	4r	.	f	4r	.	f	4r	.	f	4r	f	4r	f	2.ryy
.	.	.	4r	.	4r	.	.	4d\	Do-	.	4d\	Do-	.	4a\	Do-	.	4ff#\	Do-	.	4dd\	.	4ff#\	.	.
.	.	.	4r	.	4r	.	.	4A\	-mi-	.	4c#\	-mi-	.	4a\	-mi-	.	4ee\	-mi-	.	4a/	.	4ee\	.	.
=2	=2	=2	=2	=2	=2	=2	=2	=2	=2	=2	=2	=2	=2	=2	=2	=2	=2	=2	=2	=2	=2	=2	=2	=2
!LO:TX:t=P:problem=brak pierwszego taktu	!LO:DY:a:t=f.:rj	!	!	!	!	!	!	!	!	!	!	!	!	!	!	!	!	!	!	!	!	!	!	!
!LO:TX:b:i:t=Dominare	!	!	!	!	!	!	!	!	!	!	!	!	!	!	!	!	!	!	!	!	!	!	!	!
4D/	f	.	8dd\L	.	8dd\L	.	2.ryy	4d\	-na-	.	4d\	-na-	.	4a\	-na-	.	4ff#\	-na-	.	4dd\	.	4ff#\	.	2.ryy
.	.	.	16dd\L	.	16dd\L	.	.	.	.	.	.	.	.	.	.	.	.	.	.	.	.	.	.	.
.	.	.	16ee\JJ	.	16ee\JJ	.	.	.	.	.	.	.	.	.	.	.	.	.	.	.	.	.	.	.
4F#\	.	.	8ff#\L	.	8ff#\L	.	.	4D/	-re	.	4d\	-re	.	4a\	-re	.	4ff#\	-re	.	4dd\	.	4ff#\	.	.
.	.	.	16ff#\L	.	16ff#\L	.	.	.	.	.	.	.	.	.	.	.	.	.	.	.	.	.	.	.
.	.	.	16gg\JJ	.	16gg\JJ	.	.	.	.	.	.	.	.	.	.	.	.	.	.	.	.	.	.	.
4A\	.	.	8aa\L	.	8aa\L	.	.	4r	.	.	4r	.	.	4r	.	.	4r	.	.	4r	.	4r	.	.
.	.	.	16bb\L	.	16bb\L	.	.	.	.	.	.	.	.	.	.	.	.	.	.	.	.	.	.	.
.	.	.	16ccc#\JJ	.	16ccc#\JJ	.	.	.	.	.	.	.	.	.	.	.	.	.	.	.	.	.	.	.
=3	=3	=3	=3	=3	=3	=3	=3	=3	=3	=3	=3	=3	=3	=3	=3	=3	=3	=3	=3	=3	=3	=3	=3	=3
*	*	*	*	*	*	*	*	*	*ij	*	*	*ij	*	*	*	*	*	*ij	*	*	*	*	*	*
8d\L	.	.	16ff#\LL	.	16ddd\LL	.	2.ryy	8d\	do-	.	8d\	do-	.	8a\	do-	.	8ff#\	do-	.	8ff#\L	.	8aa\L	.	2.ryy
.	.	.	16a\	.	16dd\	.	.	.	.	.	.	.	.	.	.	.	.	.	.	.	.	.	.	.
8A\	.	.	16ff#\	.	16ddd\	.	.	8A\	-mi-	.	8d\	-mi-	.	8a\	-mi-	.	8ff#\	-mi-	.	8ff#\	.	8aa\	.	.
.	.	.	16a\JJ	.	16dd\JJ	.	.	.	.	.	.	.	.	.	.	.	.	.	.	.	.	.	.	.
8F#\	.	.	16ff#\LL	.	16ddd\LL	.	.	8F#\	-na-	.	8d\	-na-	.	8a\	-na-	.	8ff#\	-na-	.	8ff#\	.	8aa\	.	.
.	.	.	16a\	.	16dd\	.	.	.	.	.	.	.	.	.	.	.	.	.	.	.	.	.	.	.
8D\	.	.	16ff#\	.	16ddd\	.	.	8D\	-re	.	8d\	-re	.	8a\	-re	.	8ff#,\	-re	.	8ff#\	.	8aa\	.	.
*	*	*	*	*	*	*	*	*	*Xij	*	*	*Xij	*	*	*ij	*	*	*Xij	*	*	*	*	*	*
.	.	.	16a\JJ	.	16dd\JJ	.	.	.	.	.	.	.	.	.	.	.	.	.	.	.	.	.	.	.
8F#\	.	.	16ff#\LL	.	16ddd\LL	.	.	8F#\	do-	.	8d\	do-	.	8a\	do-	.	8ff#\	do-	.	8ff#\	.	8aa\	.	.
.	.	.	16a\	.	16dd\	.	.	.	.	.	.	.	.	.	.	.	.	.	.	.	.	.	.	.
8G\J	.	.	16ff#\	.	16ddd\	.	.	8G\	-mi-	.	8d\	-mi-	.	8a\	-mi-	.	8ff#\	-mi-	.	8dd\J	.	8ff#\J	.	.
.	.	.	16a\JJ	.	16dd\JJ	.	.	.	.	.	.	.	.	.	.	.	.	.	.	.	.	.	.	.
=4	=4	=4	=4	=4	=4	=4	=4	=4	=4	=4	=4	=4	=4	=4	=4	=4	=4	=4	=4	=4	=4	=4	=4	=4
4A\	.	.	8ff#\L	.	8aa\L	.	2.ryy	4A\	-na-	.	4c#\	-na-	.	4a\	-na-	.	4ee\	-na-	.	4a/	.	4ee\	.	2.ryy
.	.	.	16a\L	.	16a\L	.	.	.	.	.	.	.	.	.	.	.	.	.	.	.	.	.	.	.
.	.	.	16b\JJ	.	16b\JJ	.	.	.	.	.	.	.	.	.	.	.	.	.	.	.	.	.	.	.
4AA/	.	.	8cc#\L	.	8cc#\L	.	.	4AA/	-re	.	4c#\	-re	.	4a\	-re	.	4ee\	-re	.	4a/	.	4ee\	.	.
*	*	*	*	*	*	*	*	*	*	*	*	*	*	*	*Xij	*	*	*	*	*	*	*	*	*
.	.	.	16cc#\L	.	16cc#\L	.	.	.	.	.	.	.	.	.	.	.	.	.	.	.	.	.	.	.
.	.	.	16dd\JJ	.	16dd\JJ	.	.	.	.	.	.	.	.	.	.	.	.	.	.	.	.	.	.	.
8r	.	.	8ee\L	.	8ee\L	.	.	8r	.	.	8r	.	.	8r	.	.	8r	.	.	8r	.	8r	.	.
8E\	.	6 4	16ff#\L	.	16ff#\L	.	.	8E\	in	.	8c#\	in	.	8a\	in	.	8ee\	in	.	8a/	.	8ee\	.	.
.	.	.	16gg\JJ	.	16gg\JJ	.	.	.	.	.	.	.	.	.	.	.	.	.	.	.	.	.	.	.
=5	=5	=5	=5	=5	=5	=5	=5	=5	=5	=5	=5	=5	=5	=5	=5	=5	=5	=5	=5	=5	=5	=5	=5	=5
!	!	!	!	!	!LO:TX:t=P:problem=mixed beam	!	!	!	!	!	!	!	!	!	!	!	!	!	!	!	!	!	!	!
4A\	.	.	8aa\L	.	8aa\L	.	2.ryy	8.A\	me-	.	8.c#\	me-	.	8.a\	me-	.	8.ee\	me-	.	4a/	.	4ee\	.	2.ryy
.	.	.	16a\L	.	16a/L	.	.	.	.	.	.	.	.	.	.	.	.	.	.	.	.	.	.	.
.	.	.	16b\JJ	.	16b/JJ	.	.	16AA/	-di-	.	16c#\	-di-	.	16a\	-di-	.	16ee\	-di-	.	.	.	.	.	.
4AA/	.	.	8cc#\L	.	8cc#\L	.	.	4AA/	-o	.	4c#\	-o	.	4a\	-o	.	4ee\	-o	.	4a/	.	4ee\	.	.
.	.	.	16cc#\L	.	16cc#\L	.	.	.	.	.	.	.	.	.	.	.	.	.	.	.	.	.	.	.
.	.	.	16dd\JJ	.	16dd\JJ	.	.	.	.	.	.	.	.	.	.	.	.	.	.	.	.	.	.	.
8r	.	.	8ee\L	.	8ee\L	.	.	8r	.	.	8r	.	.	8r	.	.	8r	.	.	8r	.	8r	.	.
8A\	.	.	16ff#\L	.	16ff#\L	.	.	8A\	in	.	8c#\	in	.	8a\	in	.	8ee\	in	.	8a/	.	8ee\	.	.
.	.	.	16gg\JJ	.	16gg\JJ	.	.	.	.	.	.	.	.	.	.	.	.	.	.	.	.	.	.	.
=6	=6	=6	=6	=6	=6	=6	=6	=6	=6	=6	=6	=6	=6	=6	=6	=6	=6	=6	=6	=6	=6	=6	=6	=6
8A\L	.	.	16aa\LL	.	16aa\LL	.	2.ryy	8.A\	me-	.	8.c#\	me-	.	8.a\	me-	.	8.ee\	me-	.	4a/	.	4ee\	.	2.ryy
.	.	.	16a\	.	16a\	.	.	.	.	.	.	.	.	.	.	.	.	.	.	.	.	.	.	.
8A\	.	.	16b\	.	16b\	.	.	.	.	.	.	.	.	.	.	.	.	.	.	.	.	.	.	.
.	.	.	16cc#\JJ	.	16cc#\JJ	.	.	16A\	-di-	.	16c#\	-di-	.	16a\	-di-	.	16ee\	-di-	.	.	.	.	.	.
8A\	.	.	16dd\LL	.	16dd\LL	.	.	8A\	-o	.	8c#\	-o	.	8a\	-o	.	8ee,\	-o	.	8a/L	.	8ee\L	.	.
.	.	.	16ee\	.	16ee\	.	.	.	.	.	.	.	.	.	.	.	.	.	.	.	.	.	.	.
8A\J	.	.	16ff#\	.	16ff#\	.	.	8A\	i-	.	8c#\	i-	.	8a\	i-	.	8ee\	i-	.	8a/	.	8ee\	.	.
.	.	.	16gg\JJ	.	16gg\JJ	.	.	.	.	.	.	.	.	.	.	.	.	.	.	.	.	.	.	.
8B\L	.	.	16aa\LL	.	16aa\LL	.	.	8B\	-ni-	.	8c#\	-ni-	.	8a\	-ni-	.	8ee\	-ni-	.	8a/	.	8ee\	.	.
.	.	.	16gg\	.	16gg\	.	.	.	.	.	.	.	.	.	.	.	.	.	.	.	.	.	.	.
8c#\J	.	X 6	16ff#\	.	16ff#\	.	.	8c#\	-mi-	.	8c#\	-mi-	.	8a\	-mi-	.	8ee\	-mi-	.	8a/J	.	8ee\J	.	.
.	.	.	16ee\JJ	.	16ee\JJ	.	.	.	.	.	.	.	.	.	.	.	.	.	.	.	.	.	.	.
!	!	!	!LO:LB:g=original	!	!LO:LB:g=original	!	!	!	!	!	!LO:LB:g=original	!	!	!	!	!	!	!	!	!	!	!	!	!
=7	=7	=7	=7	=7	=7	=7	=7	=7	=7	=7	=7	=7	=7	=7	=7	=7	=7	=7	=7	=7	=7	=7	=7	=7
4d\	.	.	8dd\L	.	8ff#\L	.	2.ryy	4d\	-co-	.	4d\	-co-	.	4a\	-co-	.	4ff#\	-co-	.	4dd\	.	4ff#\	.	2.ryy
.	.	.	16dd\L	.	16dd\L	.	.	.	.	.	.	.	.	.	.	.	.	.	.	.	.	.	.	.
.	.	.	16ee\JJ	.	16ee\JJ	.	.	.	.	.	.	.	.	.	.	.	.	.	.	.	.	.	.	.
4D/	.	.	8ff#\L	.	8ff#\L	.	.	4D/	-rum	.	4d\	-rum	.	4a\	-rum	.	4ff#\	-rum	.	4r	.	4ff#\	.	.
.	.	.	16ff#\L	.	16ff#\L	.	.	.	.	.	.	.	.	.	.	.	.	.	.	.	.	.	.	.
.	.	.	16gg\JJ	.	16gg\JJ	.	.	.	.	.	.	.	.	.	.	.	.	.	.	.	.	.	.	.
*	*	*	*	*	*	*	*	*	*	*	*	*	*	*	*	*	*custos:ff	*	*	*	*	*	*	*
4r	.	.	8aa\L	.	8aa\L	.	.	4r	.	.	4r	.	.	4r	.	.	4r	.	.	4r	.	4r	.	.
.	.	.	8ee\J	.	16bb\L	.	.	.	.	.	.	.	.	.	.	.	.	.	.	.	.	.	.	.
.	.	.	.	.	16ccc#\JJ	.	.	.	.	.	.	.	.	.	.	.	.	.	.	.	.	.	.	.
!	!	!	!	!	!	!	!	!	!	!	!	!	!	!LO:LB:g=original	!	!	!LO:LB:g=original	!	!	!	!	!	!	!
=8	=8	=8	=8	=8	=8	=8	=8	=8	=8	=8	=8	=8	=8	=8	=8	=8	=8	=8	=8	=8	=8	=8	=8	=8
8d\L	.	.	8ff#\L	.	8ddd\L	.	2.ryy	8d\	do-	.	8d\	do-	.	8a\	do-	.	8ff#\	do-	.	8dd\L	.	8ff#\L	.	2.ryy
8D\J	.	.	8ff#\	.	8aa\	.	.	8d\	-mi-	.	8d\	-mi-	.	8a\	-mi-	.	8ff#\	-mi-	.	8dd\	.	8ff#\	.	.
8F#\L	.	.	8ff#\	.	8aa\	.	.	8d\	-na-	.	8d\	-na-	.	8a\	-na-	.	8ff#\	-na-	.	8dd\	.	8ff#\	.	.
8D\	.	.	8ff#\	.	8aa\	.	.	8d\	-re	.	8d\	-re	.	8a\	-re	.	8ff#,\	-re	.	8dd\	.	8ff#\	.	.
*	*	*	*	*	*	*	*	*	*	*	*	*ij	*	*	*ij	*	*	*ij	*	*	*	*	*	*
!	!	!	!	!	!	!	!	!LO:LB:g=original	!	!	!	!	!	!	!	!	!	!	!	!	!	!	!	!
8E\	.	.	8ff#\	.	8aa\	.	.	8d\	do-	.	8d\	do-	.	8a\	do-	.	8ff#\	do-	.	8dd\	.	8ff#\	.	.
8F#\J	.	.	8ff#\J	.	8aa\J	.	.	8d\	-mi-	.	8d\	-mi-	.	8a\	-mi-	.	8ff#\	-mi-	.	8dd\J	.	8ff#\J	.	.
!LO:LB:g=original	!	!	!	!	!	!	!	!	!	!	!	!	!	!	!	!	!	!	!	!LO:LB:g=original	!	!	!	!
=9	=9	=9	=9	=9	=9	=9	=9	=9	=9	=9	=9	=9	=9	=9	=9	=9	=9	=9	=9	=9	=9	=9	=9	=9
4G\	.	.	16gg\LL	.	16bb\LL	.	2.ryy	4G\	-na-	.	4d\	-na-	.	4b\	-na-	.	4gg\	-na-	.	4dd\	.	4gg\	.	2.ryy
.	.	.	16dd\	.	16gg\	.	.	.	.	.	.	.	.	.	.	.	.	.	.	.	.	.	.	.
.	.	.	16b\	.	16dd\	.	.	.	.	.	.	.	.	.	.	.	.	.	.	.	.	.	.	.
.	.	.	16g\JJ	.	16b\JJ	.	.	.	.	.	.	.	.	.	.	.	.	.	.	.	.	.	.	.
4GG/	.	.	16gg\LL	.	16bb\LL	.	.	4GG/	-re	.	4d\	-re	.	4b\	-re	.	4gg\	-re	.	4dd\	.	4gg\	.	.
*	*	*	*	*	*	*	*	*	*	*	*	*Xij	*	*	*Xij	*	*	*Xij	*	*	*	*	*	*
.	.	.	16dd\	.	16gg\	.	.	.	.	.	.	.	.	.	.	.	.	.	.	.	.	.	.	.
.	.	.	16b\	.	16dd\	.	.	.	.	.	.	.	.	.	.	.	.	.	.	.	.	.	.	.
.	.	.	16g\JJ	.	16b\JJ	.	.	.	.	.	.	.	.	.	.	.	.	.	.	.	.	.	.	.
8r	.	.	16gg\LL	.	16bb\LL	.	.	8r	.	.	8r	.	.	8r	.	.	8r	.	.	8r	.	8r	.	.
.	.	.	16dd\	.	16gg\	.	.	.	.	.	.	.	.	.	.	.	.	.	.	.	.	.	.	.
8D/	.	6 4	16b\	.	16dd\	.	.	8D\	in	.	8d\	in	.	8b\	in	.	8gg\	in	.	8dd\	.	8gg\	.	.
.	.	.	16g\JJ	.	16b\JJ	.	.	.	.	.	.	.	.	.	.	.	.	.	.	.	.	.	.	.
=10	=10	=10	=10	=10	=10	=10	=10	=10	=10	=10	=10	=10	=10	=10	=10	=10	=10	=10	=10	=10	=10	=10	=10	=10
!LO:TX:t=P:problem=mixed beam	!	!	!	!	!	!	!	!	!	!	!	!	!	!	!	!	!	!	!	!	!	!	!	!
8.G\L	.	.	16gg\LL	.	16bb\LL	.	2.ryy	8.G\	me-	.	4.d\	me-	.	8.b\	me-	.	8.gg\	me-	.	4dd\	.	4gg\	.	2.ryy
.	.	.	16dd\	.	16gg\	.	.	.	.	.	.	.	.	.	.	.	.	.	.	.	.	.	.	.
.	.	.	16b\	.	16dd\	.	.	.	.	.	.	.	.	.	.	.	.	.	.	.	.	.	.	.
16GG/Jk	.	.	16g\JJ	.	16b\JJ	.	.	16GG/	-di-	.	.	.	.	16b\	-di-	.	16gg\	-di-	.	.	.	.	.	.
4GG/	.	.	16gg\LL	.	16bb\LL	.	.	4GG/	-o	.	.	.	.	4b\	-o	.	4gg\	-o	.	4dd\	.	4gg\	.	.
.	.	.	16dd\	.	16gg\	.	.	.	.	.	.	.	.	.	.	.	.	.	.	.	.	.	.	.
.	.	.	16b\	.	16dd\	.	.	.	.	.	8d\	-di-	.	.	.	.	.	.	.	.	.	.	.	.
.	.	.	16g\JJ	.	16b\JJ	.	.	.	.	.	.	.	.	.	.	.	.	.	.	.	.	.	.	.
4r	.	.	16gg\LL	.	16bb\LL	.	.	4r	.	.	4d\	-o	.	4r	.	.	4r	.	.	4r	.	4r	.	.
.	.	.	16dd\	.	16gg\	.	.	.	.	.	.	.	.	.	.	.	.	.	.	.	.	.	.	.
.	.	.	16b\	.	16dd\	.	.	.	.	.	.	.	.	.	.	.	.	.	.	.	.	.	.	.
.	.	.	16g\JJ	.	16b\JJ	.	.	.	.	.	.	.	.	.	.	.	.	.	.	.	.	.	.	.
=11	=11	=11	=11	=11	=11	=11	=11	=11	=11	=11	=11	=11	=11	=11	=11	=11	=11	=11	=11	=11	=11	=11	=11	=11
8e\L	.	X #	8gg#X\L	.	8bb\L	.	2.ryy	8e\	do-	.	8e\	do-	.	8b\	do-	.	8gg#X\	do-	.	8ee\L	.	8gg#X\L	.	2.ryy
8B\	.	.	8gg#\	.	8bb\	.	.	8e\	-mi-	.	8e\	-mi-	.	8b\	-mi-	.	8gg#\	-mi-	.	8ee\	.	8gg#\	.	.
8G#X\	.	.	8gg#\	.	8bb\	.	.	8e\	-na-	.	8e\	-na-	.	8b\	-na-	.	8gg#\	-na-	.	8ee\	.	8gg#\	.	.
8E\J	.	.	8gg#\	.	8bb\	.	.	8e\	-re	.	8e\	-re	.	8b\	-re	.	8gg#,\	-re	.	8ee\	.	8gg#\	.	.
*	*	*	*	*	*	*	*	*	*ij	*	*	*ij	*	*	*ij	*	*	*ij	*	*	*	*	*	*
8F#\L	.	.	8gg#\	.	8bb\	.	.	8e\	do-	.	8e\	do-	.	8b\	do-	.	8gg#\	do-	.	8ee\	.	8gg#\	.	.
8G#X\J	.	.	8gg#\J	.	8bb\J	.	.	8e\	-mi-	.	8e\	-mi-	.	8b\	-mi-	.	8gg#\	-mi-	.	8ee\J	.	8gg#\J	.	.
=12	=12	=12	=12	=12	=12	=12	=12	=12	=12	=12	=12	=12	=12	=12	=12	=12	=12	=12	=12	=12	=12	=12	=12	=12
4A\	.	.	16aa\LL	.	16ccc#\LL	.	2.ryy	4A\	-na-	.	4e\	-na-	.	4cc#\	-na-	.	4aa\	-na-	.	4ee\	.	4aa\	.	2.ryy
.	.	.	16ee\	.	16aa\	.	.	.	.	.	.	.	.	.	.	.	.	.	.	.	.	.	.	.
.	.	.	16cc#\	.	16ee\	.	.	.	.	.	.	.	.	.	.	.	.	.	.	.	.	.	.	.
.	.	.	16a\JJ	.	16cc#\JJ	.	.	.	.	.	.	.	.	.	.	.	.	.	.	.	.	.	.	.
4AA/	.	.	16aa\LL	.	16ccc#\LL	.	.	4A\	-re	.	4e\	-re	.	4cc#\	-re	.	4a\	-re	.	4ee\	.	4aa\	.	.
*	*	*	*	*	*	*	*	*	*Xij	*	*	*Xij	*	*	*Xij	*	*	*Xij	*	*	*	*	*	*
.	.	.	16ee\	.	16aa\	.	.	.	.	.	.	.	.	.	.	.	.	.	.	.	.	.	.	.
.	.	.	16cc#\	.	16ee\	.	.	.	.	.	.	.	.	.	.	.	.	.	.	.	.	.	.	.
.	.	.	16a\JJ	.	16cc#\JJ	.	.	.	.	.	.	.	.	.	.	.	.	.	.	.	.	.	.	.
8r	.	.	16aa\LL	.	16ccc#\LL	.	.	8r	.	.	8r	.	.	8r	.	.	8r	.	.	8r	.	8r	.	.
.	.	.	16ee\	.	16aa\	.	.	.	.	.	.	.	.	.	.	.	.	.	.	.	.	.	.	.
8E\	.	6 4	16cc#\	.	16ee\	.	.	8e\	in	.	8e\	in	.	8cc#\	in	.	8a\	in	.	8ee\	.	8aa\	.	.
*	*	*	*	*	*custos:ccc	*	*	*	*	*	*	*	*	*	*	*	*	*	*	*	*	*	*	*
.	.	.	16a\JJ	.	16cc#\JJ	.	.	.	.	.	.	.	.	.	.	.	.	.	.	.	.	.	.	.
!	!	!	!	!	!LO:LB:g=original	!	!	!	!	!	!	!	!	!	!	!	!	!	!	!	!	!LO:LB:g=original	!	!
=13	=13	=13	=13	=13	=13	=13	=13	=13	=13	=13	=13	=13	=13	=13	=13	=13	=13	=13	=13	=13	=13	=13	=13	=13
8A\L	.	.	8aa\L	.	8ccc#\L	.	2.ryy	8.A\	me-	.	8.e\	me-	.	8.cc#\	me-	.	8.a\	me-	.	8.ee\L	.	8aa\L	.	2.ryy
8A\	.	.	8aa\	.	8ccc#\	.	.	.	.	.	.	.	.	.	.	.	.	.	.	.	.	8aa\	.	.
.	.	.	.	.	.	.	.	16AA/	-di-	.	16e\	-di-	.	16cc#\	-di-	.	16a\	-di-	.	16ee\K	.	.	.	.
!	!	!	!	!	!	!	!	!	!	!	!LO:LB:g=original	!	!	!	!	!	!	!	!	!	!	!	!	!
8A\	.	.	8aa\	.	8ccc#\	.	.	8AA/	-o	.	8e\	-o	.	8cc#\	-o	.	8a,\	-o	.	8ee\	.	8aa\	.	.
8A\	.	.	8aa\	.	8ccc#\	.	.	8A\	i-	.	8c#\	i-	.	8a\	i-	.	8ee\	i-	.	8ee\J	.	8aa\	.	.
8B\	.	X 3	8aa\	.	8ccc#\	.	.	8B\	-ni-	.	8c#\	-ni-	.	8a\	-ni-	.	8ee\	-ni-	.	8ee\L	.	8aa\	.	.
*	*	*	*	*	*	*	*	*	*	*	*	*	*	*	*	*	*custos:ff	*	*	*	*	*	*	*
8c#\J	.	X 3	8aa\J	.	8ccc#\J	.	.	8c#\	-mi-	.	8c#\	-mi-	.	8a\	-mi-	.	8ee\	-mi-	.	8ee\J	.	8aa\J	.	.
!	!	!	!LO:LB:g=original	!	!	!	!	!	!	!	!	!	!	!LO:LB:g=original	!	!	!LO:LB:g=original	!	!	!	!	!	!	!
=14	=14	=14	=14	=14	=14	=14	=14	=14	=14	=14	=14	=14	=14	=14	=14	=14	=14	=14	=14	=14	=14	=14	=14	=14
4d\	.	.	16ff#\LL	.	16ddd\LL	.	2.ryy	4d\	-co-	.	4d\	-co-	.	4a\	-co-	.	4ff#\	-co-	.	4dd\	.	4ff#\	.	2.ryy
.	.	.	16dd\	.	16aa\	.	.	.	.	.	.	.	.	.	.	.	.	.	.	.	.	.	.	.
.	.	.	16a\	.	16ff#\	.	.	.	.	.	.	.	.	.	.	.	.	.	.	.	.	.	.	.
.	.	.	16f#\JJ	.	16dd\JJ	.	.	.	.	.	.	.	.	.	.	.	.	.	.	.	.	.	.	.
!LO:TX:t=P:problem=mixed beam	!	!	!	!	!	!	!	!	!	!	!	!	!	!	!	!	!	!	!	!	!	!	!	!
8F#\L	.	.	8ff#\L	.	8ddd\L	.	.	8F#\	-rum	.	8d\	-rum	.	8a\	-rum	.	8ff#,\	-rum	.	8dd\L	.	8ff#\L	.	.
8G\	.	.	8ff#\	.	8ff#\	.	.	8G\	tu-	.	8d\	tu-	.	8b\	tu-	.	8ff#\	tu-	.	8dd\J	.	8ff#\J	.	.
!	!	!	!	!	!	!	!	!LO:TX:t=P:problem=mixed beam	!	!	!	!	!	!	!	!	!	!	!	!	!	!	!	!
8A\	.	.	8gg\	.	8ee\	.	.	8A\L	-o-	.	4c#\	-o-	.	4a\	-o-	.	4ee\	-o-	.	4a/	.	4ee\	.	.
*	*	*	*	*	*	*	*	*custos:D	*	*	*	*	*	*	*	*	*	*	*	*	*	*	*	*
8AA/J	.	.	8ee\J	.	8ccc#\J	.	.	8AA/J	.	.	.	.	.	.	.	.	.	.	.	.	.	.	.	.
!	!	!	!	!	!	!	!	!LO:LB:g=original	!	!	!	!	!	!	!	!	!	!	!	!	!	!	!	!
=15	=15	=15	=15	=15	=15	=15	=15	=15	=15	=15	=15	=15	=15	=15	=15	=15	=15	=15	=15	=15	=15	=15	=15	=15
8D/L	.	.	8ff#\L	.	8ddd\L	.	2.ryy	4D/	-rum	.	4d\	-rum	.	4a\	-rum	.	4ff#\	-rum	.	4dd\	.	4ff#\	.	2.ryy
8D/	.	.	16dd\L	.	16dd\L	.	.	.	.	.	.	.	.	.	.	.	.	.	.	.	.	.	.	.
.	.	.	16ee\JJ	.	16ee\JJ	.	.	.	.	.	.	.	.	.	.	.	.	.	.	.	.	.	.	.
8D/	.	.	8ff#\L	.	8ff#\L	.	.	4r	.	.	4r	.	.	4r	.	.	4r	.	.	4r	.	4r	.	.
8D/	.	.	16ff#\L	.	16ff#\L	.	.	.	.	.	.	.	.	.	.	.	.	.	.	.	.	.	.	.
.	.	.	16gg\JJ	.	16gg\JJ	.	.	.	.	.	.	.	.	.	.	.	.	.	.	.	.	.	.	.
8D/	.	.	8aa\L	.	8aa\L	.	.	4r	.	.	4r	.	.	4r	.	.	4r	.	.	4a/	.	4ee\	.	.
8D/J	.	.	16bb\L	.	16bb\L	.	.	.	.	.	.	.	.	.	.	.	.	.	.	.	.	.	.	.
.	.	.	16ccc#\JJ	.	16ccc#\JJ	.	.	.	.	.	.	.	.	.	.	.	.	.	.	.	.	.	.	.
=16	=16	=16	=16	=16	=16	=16	=16	=16	=16	=16	=16	=16	=16	=16	=16	=16	=16	=16	=16	=16	=16	=16	=16	=16
!LO:TX:t=P:problem=mixed beam	!	!	!	!	!	!	!	!	!	!	!	!	!	!	!	!	!	!	!	!	!	!	!	!
8D/L	.	.	8ddd\L	.	8ddd\L	.	2.ryy	8d\	do-	.	8d\	do-	.	8a\	do-	.	8ff#\	do-	.	8dd\L	.	8ff#\L	.	2.ryy
8d\	.	.	8ff#\	.	8ddd\	.	.	8d\	-mi-	.	8d\	-mi-	.	8a\	-mi-	.	8ff#\	-mi-	.	8dd\	.	8ff#\	.	.
8d\	.	.	8ff#\	.	8ddd\	.	.	8d\	-na-	.	8d\	-na-	.	8a\	-na-	.	8ff#\	-na-	.	8dd\	.	8ff#\	.	.
8d\	.	.	8ff#\	.	8ddd\	.	.	8d\	-re	.	8d\	-re	.	8a\	-re	.	8ff#,\	-re	.	8dd\	.	8ff#\	.	.
*	*	*	*	*	*	*	*	*	*ij	*	*	*ij	*	*	*ij	*	*	*ij	*	*	*	*	*	*
8d\	.	.	8ff#\	.	8ddd\	.	.	8d\	do-	.	8d\	do-	.	8a\	do-	.	8ff#\	do-	.	8dd\	.	8ff#\	.	.
8d\J	.	.	8ff#\J	.	8ddd\J	.	.	8d\	-mi-	.	8d\	-mi-	.	8a\	-mi-	.	8ff#\	-mi-	.	8dd\J	.	8ff#\J	.	.
!LO:LB:g=original	!	!	!	!	!	!	!	!	!	!	!	!	!	!	!	!	!	!	!	!	!	!	!	!
=17	=17	=17	=17	=17	=17	=17	=17	=17	=17	=17	=17	=17	=17	=17	=17	=17	=17	=17	=17	=17	=17	=17	=17	=17
4d\	.	.	16ff#\LL	.	16ddd\LL	.	2.ryy	4d\	-na-	.	4d\	-na-	.	4a\	-na-	.	4ff#\	-na-	.	4dd\	.	4ff#\	.	2.ryy
.	.	.	16dd\	.	16aa\	.	.	.	.	.	.	.	.	.	.	.	.	.	.	.	.	.	.	.
.	.	.	16a\	.	16ff#\	.	.	.	.	.	.	.	.	.	.	.	.	.	.	.	.	.	.	.
.	.	.	16dd\JJ	.	16aa\JJ	.	.	.	.	.	.	.	.	.	.	.	.	.	.	.	.	.	.	.
4D/	.	.	16ff#\LL	.	16ddd\LL	.	.	4D/	-re	.	4d\	-re	.	4a\	-re	.	4ff#\	-re	.	4dd\	.	4ff#\	.	.
*	*	*	*	*	*	*	*	*	*Xij	*	*	*Xij	*	*	*Xij	*	*	*Xij	*	*	*	*	*	*
.	.	.	16dd\	.	16aa\	.	.	.	.	.	.	.	.	.	.	.	.	.	.	.	.	.	.	.
.	.	.	16a\	.	16ff#\	.	.	.	.	.	.	.	.	.	.	.	.	.	.	.	.	.	.	.
.	.	.	16dd\JJ	.	16aa\JJ	.	.	.	.	.	.	.	.	.	.	.	.	.	.	.	.	.	.	.
4r	.	.	16ff#\LL	.	16ddd\LL	.	.	4r	.	.	4r	.	.	4r	.	.	4r	.	.	4r	.	4r	.	.
.	.	.	16dd\	.	16aa\	.	.	.	.	.	.	.	.	.	.	.	.	.	.	.	.	.	.	.
.	.	.	16a\	.	16ff#\	.	.	.	.	.	.	.	.	.	.	.	.	.	.	.	.	.	.	.
.	.	.	16dd\JJ	.	16aa\JJ	.	.	.	.	.	.	.	.	.	.	.	.	.	.	.	.	.	.	.
=18	=18	=18	=18	=18	=18	=18	=18	=18	=18	=18	=18	=18	=18	=18	=18	=18	=18	=18	=18	=18	=18	=18	=18	=18
8r	.	.	8ff#\L	.	8ddd\L	.	2.ryy	8r	.	.	8r	.	.	8r	.	.	8r	.	.	8r	.	8r	.	2.ryy
8D\L	.	.	8ff#\	.	8aa\	.	.	8d\	i-	.	8d\	i-	.	8a\	i-	.	8ff#\	i-	.	8dd\L	.	8ff#\L	.	.
8F#\	.	.	8ff#\	.	8aa\	.	.	8F#\	-ni-	.	8d\	-ni-	.	8a\	-ni-	.	8ff#\	-ni-	.	8dd\	.	8ff#\	.	.
8D\J	.	.	8ff#\J	.	8aa\J	.	.	8D\	-mi-	.	8d\	-mi-	.	8a\	-mi-	.	8ff#\	-mi-	.	8dd\J	.	8ff#\J	.	.
8A\L	.	.	4gg\	.	4bb\	.	.	4c#\	-co-	.	4e\	-co-	.	4a\	-co-	.	4gg\	-co-	.	4dd\	.	4gg\	.	.
8c#\J	.	.	.	.	.	.	.	.	.	.	.	.	.	.	.	.	.	.	.	.	.	.	.	.
=19	=19	=19	=19	=19	=19	=19	=19	=19	=19	=19	=19	=19	=19	=19	=19	=19	=19	=19	=19	=19	=19	=19	=19	=19
!	!	!	!	!	!	!	!	!	!	!	!	!	!	!	!	!	!	!	!	!LO:TX:t=P:problem=mixed beam	!	!	!	!
8d\L	.	.	8ff#\L	.	8aa\L	.	2.ryy	8d\	-rum	.	8d\	-rum	.	8a\	-rum	.	8ff#,\	-rum	.	8dd\L	.	8ff#\L	.	2.ryy
8G\J	.	.	8dd\J	.	8ddd\J	.	.	8G\	tu-	.	8d\	tu-	.	8b\	tu-	.	16ee\LL	tu-	.	8d/	.	16ee\L	.	.
.	.	.	.	.	.	.	.	.	.	.	.	.	.	.	.	.	16dd\JJ	.	.	.	.	16dd\JJ	.	.
*	*	*	*	*	*	*	*	*	*	*	*	*	*	*2\right	*	*	*2\right	*	*	*	*	*2\right	*	*
!	!	!	!	!	!	!	!	!	!	!	!LO:LB:g=original	!	!	!	!	!	!	!	!	!	!	!	!	!
4A\	.	X 4	4a/	.	4ddd\	.	.	(>4A\	-o-	.	4d\	-o-	.	2a\	-o-	.	2ee\	-o-	.	8f#/	.	2ee\	.	.
.	.	.	.	.	.	.	.	.	.	.	.	.	.	.	.	.	.	.	.	8d/J	.	.	.	.
!	!	!	!	!	!	!	!	!	!	!	!	!	!	!	!	!	!	!	!	!LO:LB:g=original	!	!	!	!
4AA/	.	X 3	4ee\	.	4aa\	.	.	4AA/)	.	.	4c#\	.	.	.	.	.	.	.	.	8a/L	.	.	.	.
.	.	.	.	.	.	.	.	.	.	.	.	.	.	.	.	.	.	.	.	8a/J	.	.	.	.
!	!	!	!	!	!LO:LB:g=original	!	!	!	!	!	!	!	!	!	!	!	!	!	!	!	!	!	!	!
=20	=20	=20	=20	=20	=20	=20	=20	=20	=20	=20	=20	=20	=20	=20	=20	=20	=20	=20	=20	=20	=20	=20	=20	=20
8D/L	.	.	16ff#\LL	.	8ddd\L	.	2.ryy	4D/	-rum	.	4d\	-rum	.	4a\	-rum	.	4ff#\	-rum	.	4dd\	.	4ff#\	.	2.ryy
.	.	.	16ddd\	.	.	.	.	.	.	.	.	.	.	.	.	.	.	.	.	.	.	.	.	.
8D/	.	.	16ccc#\	.	16ccc#\L	.	.	.	.	.	.	.	.	.	.	.	.	.	.	.	.	.	.	.
.	.	.	16bb\JJ	.	16bb\JJ	.	.	.	.	.	.	.	.	.	.	.	.	.	.	.	.	.	.	.
8D/	.	.	16aa\LL	.	16aa\LL	.	.	4r	.	.	4r	.	.	4r	.	.	4r	.	.	4r	.	4r	.	.
.	.	.	16bb\	.	16bb\	.	.	.	.	.	.	.	.	.	.	.	.	.	.	.	.	.	.	.
8D/	.	.	16aa\	.	16aa\	.	.	.	.	.	.	.	.	.	.	.	.	.	.	.	.	.	.	.
.	.	.	16gg\JJ	.	16gg\JJ	.	.	.	.	.	.	.	.	.	.	.	.	.	.	.	.	.	.	.
8D/	.	.	16ff#\LL	.	16ff#\LL	.	.	4r	.	.	4r	.	.	4r	.	.	4r	.	.	4r	.	4r	.	.
.	.	.	16gg\	.	16gg\	.	.	.	.	.	.	.	.	.	.	.	.	.	.	.	.	.	.	.
8D/J	.	.	16ff#\	.	16ff#\	.	.	.	.	.	.	.	.	.	.	.	.	.	.	.	.	.	.	.
.	.	.	16ee\JJ	.	16ee\JJ	.	.	.	.	.	.	.	.	.	.	.	.	.	.	.	.	.	.	.
=21	=21	=21	=21	=21	=21	=21	=21	=21	=21	=21	=21	=21	=21	=21	=21	=21	=21	=21	=21	=21	=21	=21	=21	=21
!LO:TX:t=P:problem=mixed beam	!	!	!	!	!	!	!	!	!	!	!	!	!	!	!	!	!	!	!	!	!	!	!	!
!	!	!	!	!	!	!	!	!LO:TX:a:t=3.	!	!	!	!	!	!	!	!	!LO:TX:a:t=3	!	!	!	!	!	!	!
16D/LL	.	.	8dd\L	.	8dd\L	.	2.ryy	1.r	.	.	1.r	.	.	1.r	.	.	1.r	.	.	8dd\L	.	8ff#\L	.	2.ryy
16d\	.	.	.	.	.	.	.	.	.	.	.	.	.	.	.	.	.	.	.	.	.	.	.	.
16c#\	.	.	16cc#\L	.	16cc#\L	.	.	.	.	.	.	.	.	.	.	.	.	.	.	16dd\L	.	16ff#\L	.	.
16B\JJ	.	.	16b\JJ	.	16b\JJ	.	.	.	.	.	.	.	.	.	.	.	.	.	.	16dd\JJ	.	16ff#\JJ	.	.
16A\LL	.	.	16a/LL	.	16a/LL	.	.	.	.	.	.	.	.	.	.	.	.	.	.	8dd\L	.	8ff#\L	.	.
16B\	.	.	16b/	.	16b/	.	.	.	.	.	.	.	.	.	.	.	.	.	.	.	.	.	.	.
16A\	.	.	16a/	.	16a/	.	.	.	.	.	.	.	.	.	.	.	.	.	.	8dd\	.	8ff#\	.	.
16G\JJ	.	.	16g/JJ	.	16g/JJ	.	.	.	.	.	.	.	.	.	.	.	.	.	.	.	.	.	.	.
16F#\LL	.	.	16f#/LL	.	16f#/LL	.	.	.	.	.	.	.	.	.	.	.	.	.	.	8dd\	.	8ff#\	.	.
16G\	.	.	16g/	.	16g/	.	.	.	.	.	.	.	.	.	.	.	.	.	.	.	.	.	.	.
16F#\	.	.	16f#/	.	16f#/	.	.	.	.	.	.	.	.	.	.	.	.	.	.	8dd\J	.	8ff#\J	.	.
16E\JJ	.	.	16e/JJ	.	16e/JJ	.	.	.	.	.	.	.	.	.	.	.	.	.	.	.	.	.	.	.
!	!	!	!LO:LB:g=original	!	!	!	!	!	!	!	!	!	!	!	!	!	!	!	!	!	!	!	!	!
=22	=22	=22	=22	=22	=22	=22	=22	=22	=22	=22	=22	=22	=22	=22	=22	=22	=22	=22	=22	=22	=22	=22	=22	=22
8D\L	.	.	8d/L	.	8d/L	.	2.ryy	.	.	.	.	.	.	.	.	.	.	.	.	8gg\L	.	8aa\L	.	2.ryy
8G\J	.	.	8g/J	.	8g/J	.	.	.	.	.	.	.	.	.	.	.	.	.	.	8ee\J	.	8gg\J	.	.
4A\	.	.	4a/	.	4a/	.	.	.	.	.	.	.	.	.	.	.	.	.	.	4dd\	.	4ff#\	.	.
4AA/	.	.	4A/	.	4A/	.	.	.	.	.	.	.	.	.	.	.	.	.	.	4a/	.	4ee\	.	.
=23	=23	=23	=23	=23	=23	=23	=23	=23	=23	=23	=23	=23	=23	=23	=23	=23	=23	=23	=23	=23	=23	=23	=23	=23
4D/	.	.	4d/	.	4d/	.	2.ryy	2.r	.	.	2.r	.	.	2.r	.	.	2.r	.	.	4f#/	.	4dd\	.	2.ryy
4r	.	.	4r	.	4r	.	.	.	.	.	.	.	.	.	.	.	.	.	.	4r	.	4r	.	.
!	!	!	!LO:TX:b:i:t=Volti Subito 3/4.	!	!	!	!	!	!	!	!	!	!	!	!	!	!	!	!	!	!	!	!	!
4r	.	.	4d/yy	.	4r	.	.	.	.	.	.	.	.	.	.	.	.	.	.	4r	.	4r	.	.
==	==	==	==	==	==	==	==	==	==	==	==	==	==	==	==	==	==	==	==	==	==	==	==	==
*-	*-	*-	*-	*-	*-	*-	*-	*-	*-	*-	*-	*-	*-	*-	*-	*-	*-	*-	*-	*-	*-	*-	*-	*-
!!!system-decoration: [(s1)][(g1)][(g2)][(g3)][(s11)]
!!!RDF**kern: > = above
!!!RDF**kern: < = below
!!!ENC: Mateusz Solarz
!!!END: 2020-07-28
!!!EED: Antoni Szymański
!!!EEV: 2022-03-03
